X: 41777
T: Vatersay Bay
R: waltz
M: 3/4
K: Edorian
B<d|e4 g>f|e4 B2|d4 e<g|BG- G2 B2|e4 g>f|e4 B2|dG- G2 B2|A4 B<d|
e4 g>f|e4 B2|d4 B<d|eg- g2 B2|A4 B<d|eA- A2 G2|gf- f2 d2|e4||
g>f|e4 d<e|B<A- A2 B2|d4 e<g|B/A/G- G2 B2|e4 g>f|e4 B2|dG- G2 B2|A4 g>f|
e4 d<e|B<A- A2 B2|d4 B<d|eg- g2 B2|A4 B<d|eA- A2 G2|gf- f2 d2|e4||

